Papirus/64x64/apps/catfish.svg

<svg xmlns="http://www.w3.org/2000/svg" width="64" height="64" version="1.1">
 <path style="fill:#d79f87" d="M 40,16.678572 C 44.870083,12.460978 51.662135,9.2252332 59.638847,9.0000006 61.152502,18.313528 57.567287,25.790072 55.192316,29"/>
 <path style="fill:#946e5d" d="M 43,17.463104 C 47.263659,14.548315 51.451165,12.473112 57,12 56.664951,21.578844 54.704318,22.828164 52.690846,26"/>
 <path style="fill:#d79f87" d="M 7,36.790442 C 7.712545,32.488146 6.930653,16.899439 32.382653,15.200028 49.612608,17.730105 55.696383,24.427539 57,36.790442 56.639766,43.39605 39.380116,60.583101 32.2551,59.984717 24.560837,60.424466 7.11594,42.828113 7,36.790442 Z"/>
 <path style="fill:#d79f87" d="M 24,16.678572 C 19.129917,12.460978 12.337865,9.2252332 4.3611525,9.0000006 2.8474975,18.313528 6.4327132,25.790072 8.807684,29"/>
 <path style="fill:#946e5d" d="M 21,17.463104 C 16.736341,14.548315 12.548835,12.473112 7,12 c 0.3350491,9.578844 2.2956817,10.828164 4.309154,14"/>
 <path style="fill:#ffffff;opacity:0.2" d="M 4.3613281 9 C 4.0717605 10.781711 3.9726788 12.491104 4.0117188 14.119141 C 4.0278834 12.793193 4.130275 11.421672 4.3613281 10 C 12.224385 10.222023 18.926716 13.374393 23.78125 17.503906 C 26.253134 16.875221 29.095353 16.41872 32.382812 16.199219 C 35.327956 16.631689 37.924393 17.197387 40.25 17.880859 L 40 17.677734 C 44.870083 13.46014 51.66196 10.225233 59.638672 10 C 59.872738 11.440213 59.972815 12.830453 59.986328 14.173828 C 60.029148 12.52881 59.93117 10.799741 59.638672 9 C 51.66196 9.2252326 44.870083 12.46014 40 16.677734 L 40.25 16.880859 C 37.924393 16.197387 35.327956 15.631689 32.382812 15.199219 C 29.095352 15.41872 26.253134 15.875221 23.78125 16.503906 C 18.926716 12.374393 12.224385 9.2220234 4.3613281 9 z M 8.3652344 29.322266 C 7.331946 32.46474 7.2461441 35.304814 7 36.791016 C 7.0033287 36.96436 7.0253832 37.150098 7.0566406 37.341797 C 7.2837258 35.67114 7.4127649 32.840159 8.5839844 29.664062 C 8.5136943 29.564356 8.4370538 29.428803 8.3652344 29.322266 z M 55.421875 29.654297 C 55.346443 29.761439 55.264716 29.900917 55.191406 30 C 56.056813 32.168231 56.616392 34.59903 56.935547 37.304688 C 56.96476 37.12865 56.991083 36.954518 57 36.791016 C 56.721616 34.15095 56.200203 31.790639 55.421875 29.654297 z"/>
 <path style="fill:#946e5d" d="m 37.5,47.499966 a 5.5,5.5 0 1 1 -11,0 5.5,5.5 0 1 1 11,0 z"/>
 <path style="opacity:0.1" d="m 30.6,39.177038 c 0,0 -13.796017,-1.758651 -16.101447,5.809803 -1.546587,5.077273 1.98603,5.206374 2.532369,8.639378 C 17.577258,57.05923 13.6,56.187353 13.6,56.187353 l 0.380064,0.762891 c 0,0 3.882243,0.681154 4.001014,-2.997069 0.118773,-3.678222 -3.593487,-5.342601 -1.313114,-8.966334 2.280372,-3.623729 10.765916,-1.499322 10.765916,-1.499322 z"/>
 <path style="fill:#4a3025" d="m 30.6,38.177038 c 0,0 -13.796017,-1.758651 -16.101447,5.809803 -1.546587,5.077273 1.98603,5.206374 2.532369,8.639378 C 17.577258,56.05923 13.6,55.187353 13.6,55.187353 l 0.380064,0.762891 c 0,0 3.882243,0.681154 4.001014,-2.997069 0.118773,-3.678222 -3.593487,-5.342601 -1.313114,-8.966334 2.280372,-3.623729 10.765916,-1.499322 10.765916,-1.499322 z"/>
 <path style="opacity:0.1" d="M 20.5,19 C 14.70372,19 9.9992456,23.705407 10,29.5 9.99866,35.295096 14.703349,40 20.5,40 26.296282,40 31.000755,35.294588 31,29.5 31.0013,23.704904 26.296653,19 20.5,19 Z m 0,3 c 4.140474,0 7.500958,3.36064 7.5,7.5 5.39e-4,4.138998 -3.359792,7.5 -7.5,7.5 -4.140472,0 -7.500958,-3.36064 -7.5,-7.5 -5.39e-4,-4.139002 3.359793,-7.5 7.5,-7.5 z"/>
 <path style="fill:#1b65cf" d="M 20.5 18 C 14.70372 18 9.9992456 22.705407 10 28.5 C 9.99866 34.295096 14.703349 39 20.5 39 C 26.296282 39 31.000755 34.294588 31 28.5 C 31.0013 22.704904 26.296653 18 20.5 18 z M 20.5 21 C 24.640474 21 28.000958 24.36064 28 28.5 C 28.000539 32.638998 24.640208 36 20.5 36 C 16.359528 36 12.999042 32.63936 13 28.5 C 12.999461 24.360998 16.359793 21 20.5 21 z"/>
 <path style="opacity:0.1" d="m 33.4,39.177038 c 0,0 13.796017,-1.758651 16.101447,5.809803 1.546587,5.077273 -1.98603,5.206374 -2.532369,8.639378 C 46.422742,57.05923 50.4,56.187353 50.4,56.187353 l -0.380064,0.762891 c 0,0 -3.882243,0.681154 -4.001014,-2.997069 -0.118773,-3.678222 3.593487,-5.342601 1.313114,-8.966334 C 45.051664,41.363112 36.56612,43.487519 36.56612,43.487519 Z"/>
 <path style="fill:#4a3025" d="m 33.4,38.177038 c 0,0 13.796017,-1.758651 16.101447,5.809803 1.546587,5.077273 -1.98603,5.206374 -2.532369,8.639378 C 46.422742,56.05923 50.4,55.187353 50.4,55.187353 l -0.380064,0.762891 c 0,0 -3.882243,0.681154 -4.001014,-2.997069 -0.118773,-3.678222 3.593487,-5.342601 1.313114,-8.966334 C 45.051664,40.363112 36.56612,42.487519 36.56612,42.487519 Z"/>
 <path style="fill:#383838" d="m 37.5,41.5 a 5.5,5.4999999 0 1 1 -11,0 5.5,5.4999999 0 1 1 11,0 z"/>
 <path style="opacity:0.2" d="m 43.48369,28.001346 c -2.066756,0.01897 -3.565739,0.238163 -4.768792,0.805074 -1.604073,0.755878 -2.621083,2.122221 -3.689702,4.321175 a 0.26088317,0.25415387 0 0 0 0.07439,0.308725 c 1.233448,0.94425 2.386202,1.435236 3.466547,1.541644 1.080344,0.106414 2.078231,-0.17787 2.974382,-0.738558 1.792295,-1.121367 3.212654,-3.317412 4.43457,-5.833041 a 0.26088317,0.25415387 0 0 0 -0.225194,-0.362331 c -0.825104,-0.03259 -1.577275,-0.049 -2.266197,-0.04269 z"/>
 <path style="fill:#aef766" d="m 43.48369,27.001346 c -2.066756,0.01897 -3.565739,0.238163 -4.768792,0.805074 -1.604073,0.755878 -2.621083,2.122221 -3.689702,4.321175 a 0.26088317,0.25415387 0 0 0 0.07439,0.308725 c 1.233448,0.94425 2.386202,1.435236 3.466547,1.541644 1.080344,0.106414 2.078231,-0.17787 2.974382,-0.738558 1.792295,-1.121367 3.212654,-3.317412 4.43457,-5.833041 a 0.26088317,0.25415387 0 0 0 -0.225194,-0.362331 c -0.825104,-0.03259 -1.577275,-0.049 -2.266197,-0.04269 z"/>
 <path style="fill:#263742" d="m 39.073513,28.600002 c -0.185972,1.9923 -0.1078,2.86901 1.301486,4 -0.09795,-1.839009 -0.148526,-2.730617 -1.301486,-4 z"/>
 <path style="opacity:0.1" d="M 59.946002,27.364979 A 23.623847,5.3957636 18.246416 1 1 15.054008,12.634981 23.623847,5.3957636 18.246416 1 1 59.946002,27.364979 Z"/>
 <path style="fill:#3f3f3f" d="M 59.946002,26.364979 A 23.623847,5.3957636 18.246416 1 1 15.054008,11.634981 23.623847,5.3957636 18.246416 1 1 59.946002,26.364979 Z"/>
 <path style="opacity:0.1" d="M 32.308591,5.0000006 C 37.345616,5.1676382 45.931673,6.6249283 53,11.089278 L 49.379932,21.914362 C 41.91488,22.554715 33.304788,19.459418 29,15.666638 Z"/>
 <path style="fill:#484848" d="M 32.308591,4.0000004 C 37.345616,4.167638 45.931673,5.6249281 53,10.089278 L 49.379932,20.914362 C 41.91488,21.554715 33.304788,18.459418 29,14.666638 Z"/>
 <path style="opacity:0.2" d="m 32.470145,4.0079104 c 6.283605,4.927046 16.325147,6.9226306 20.440894,6.3461886 l 0.08874,-0.26511 C 46.00399,5.6704527 37.527044,4.2002039 32.470145,4.0079104 Z"/>
 <path style="fill:#1b65cf" d="m 10.060098,27.239461 c -1.317447,0.418085 -2.143546,0.813033 -2.6195266,1.255077 -0.2379904,0.221021 -0.3944239,0.467366 -0.4320306,0.735544 -0.037607,0.26818 0.052092,0.529972 0.2078121,0.751953 0.3114385,0.44396 0.8750154,0.79778 1.5941381,1.153903 0.7191227,0.356125 1.597754,0.700209 2.532027,1.041796 l 0.196875,-0.533202 C 10.613108,31.305866 9.7492169,30.966288 9.0647874,30.627346 8.3803581,30.288404 7.8777085,29.936776 7.681196,29.656645 7.58294,29.516579 7.5572668,29.410434 7.5718212,29.306645 7.5863756,29.20285 7.6509855,29.072807 7.8261176,28.910162 8.1763813,28.584871 8.9507769,28.187571 10.232364,27.780866 Z"/>
 <path style="opacity:0.1" d="m 32,44.5 a 5.5,5.5 0 1 1 -11,0 5.5,5.5 0 1 1 11,0 z"/>
 <path style="fill:#79503c" d="m 32,43.5 a 5.5,5.5 0 1 1 -11,0 5.5,5.5 0 1 1 11,0 z"/>
 <path style="opacity:0.1" d="m 42.999954,44.499455 a 5.5,5.4982003 0 1 1 -10.999999,0 5.5,5.4982003 0 1 1 10.999999,0 z"/>
 <path style="fill:#79503c" d="m 42.999954,43.499455 a 5.5,5.4982003 0 1 1 -10.999999,0 5.5,5.4982003 0 1 1 10.999999,0 z"/>
 <path style="opacity:0.2;fill:#ffffff" d="M 29.777574,12.159048 29,14.665694 c 4.304788,3.79278 12.914544,6.890366 20.379596,6.250011 l 0.73897,-2.213372 c -2.181007,0.177365 -7.533296,-0.514858 -10.95772,-1.47466 -3.678325,-1.030963 -7.684373,-3.216478 -9.383272,-5.068625 z"/>
 <path style="opacity:0.3;fill:#1b65cf" d="m 20.5,21 c 4.140473,0 7.500959,3.36064 7.5,7.5 5.39e-4,4.138997 -3.359793,7.499999 -7.5,7.499999 -4.140471,0 -7.500957,-3.360639 -7.499999,-7.499999 C 12.999462,24.360998 16.359794,21 20.5,21 Z"/>
 <path style="opacity:0.2" d="m 17.516311,28.001346 c 2.066756,0.01897 3.565739,0.238163 4.768792,0.805074 1.604073,0.755878 2.621083,2.122221 3.689702,4.321175 a 0.26088317,0.25415387 0 0 1 -0.07439,0.308725 c -1.233448,0.94425 -2.386202,1.435236 -3.466547,1.541644 -1.080344,0.106414 -2.078231,-0.17787 -2.974382,-0.738558 -1.792295,-1.121367 -3.212654,-3.317412 -4.43457,-5.833041 a 0.26088317,0.25415387 0 0 1 0.225194,-0.362331 c 0.825104,-0.03259 1.577275,-0.049 2.266197,-0.04269 z"/>
 <path style="fill:#aef766" d="m 17.516311,27.001346 c 2.066756,0.01897 3.565739,0.238163 4.768792,0.805074 1.604073,0.755878 2.621083,2.122221 3.689702,4.321175 a 0.26088317,0.25415387 0 0 1 -0.07439,0.308725 c -1.233448,0.94425 -2.386202,1.435236 -3.466547,1.541644 -1.080344,0.106414 -2.078231,-0.17787 -2.974382,-0.738558 -1.792295,-1.121367 -3.212654,-3.317412 -4.43457,-5.833041 a 0.26088317,0.25415387 0 0 1 0.225194,-0.362331 c 0.825104,-0.03259 1.577275,-0.049 2.266197,-0.04269 z"/>
 <path style="fill:#263742" d="m 21.926488,28.600002 c 0.185972,1.9923 0.1078,2.86901 -1.301486,4 0.09795,-1.839009 0.148526,-2.730617 1.301486,-4 z"/>
</svg>

<?xml version="1.0" encoding="UTF-8" standalone="no"?>
<svg
   id="_图层_1"
   version="1.1"
   viewBox="0 0 64 64" width="64" height="64"
   sodipodi:docname="catfish.svg"
   xml:space="preserve"
   inkscape:version="1.4 (e7c3feb100, 2024-10-09)"
   xmlns:inkscape="http://www.inkscape.org/namespaces/inkscape"
   xmlns:sodipodi="http://sodipodi.sourceforge.net/DTD/sodipodi-0.dtd"
   xmlns="http://www.w3.org/2000/svg"
   xmlns:svg="http://www.w3.org/2000/svg"><sodipodi:namedview
     id="namedview26"
     pagecolor="#505050"
     bordercolor="#eeeeee"
     borderopacity="1"
     inkscape:showpageshadow="0"
     inkscape:pageopacity="0"
     inkscape:pagecheckerboard="0"
     inkscape:deskcolor="#505050"
     inkscape:zoom="10.6875"
     inkscape:cx="32"
     inkscape:cy="34.71345"
     inkscape:window-width="1920"
     inkscape:window-height="939"
     inkscape:window-x="0"
     inkscape:window-y="34"
     inkscape:window-maximized="1"
     inkscape:current-layer="_图层_1" /><!-- Generator: Adobe Illustrator 29.0.1, SVG Export Plug-In . SVG Version: 2.1.0 Build 192)  --><defs
     id="defs6"><style
       id="style1">
      .st0 {
        fill-opacity: .5;
      }

      .st0, .st1, .st2, .st3, .st4, .st5, .st6, .st7 {
        fill: #fff;
      }

      .st8 {
        fill: #133c9a;
      }

      .st2, .st9 {
        display: none;
      }

      .st3 {
        fill-opacity: .2;
      }

      .st4 {
        fill-opacity: .9;
      }

      .st10 {
        fill: #3370ff;
      }

      .st11 {
        fill: url(#_未命名的渐变_3);
      }

      .st12 {
        fill: url(#_未命名的渐变);
      }

      .st5 {
        fill-opacity: .3;
      }

      .st6 {
        fill-opacity: 0;
      }

      .st7 {
        fill-opacity: .7;
      }

      .st13 {
        fill: #00d6b9;
      }

      .st14 {
        fill: url(#_未命名的渐变_2);
      }
    </style><radialGradient
       id="_未命名的渐变"
       data-name="未命名的渐变"
       cx="123.9"
       cy="-40.2"
       fx="123.9"
       fy="-40.2"
       r="59.4"
       gradientTransform="translate(-26.8 25.5) scale(.6 -.7)"
       gradientUnits="userSpaceOnUse"><stop
         offset="0"
         stop-color="#db202e"
         id="stop1" /><stop
         offset="1"
         stop-color="#e01b24"
         id="stop2" /></radialGradient><radialGradient
       id="_未命名的渐变_2"
       data-name="未命名的渐变 2"
       cx="67.6"
       cy="26.8"
       fx="67.6"
       fy="26.8"
       r="105.2"
       gradientTransform="translate(-26.6 25.3) scale(.6 -.7)"
       gradientUnits="userSpaceOnUse"><stop
         offset="0"
         stop-color="#ffb648"
         id="stop3" /><stop
         offset="1"
         stop-color="#ff7800"
         stop-opacity="0"
         id="stop4" /></radialGradient><radialGradient
       id="_未命名的渐变_3"
       data-name="未命名的渐变 3"
       cx="61.7"
       cy="18.6"
       fx="61.7"
       fy="18.6"
       r="68"
       gradientTransform="translate(-26.8 25.8) scale(.6 -.7)"
       gradientUnits="userSpaceOnUse"><stop
         offset="0"
         stop-color="#c64600"
         id="stop5" /><stop
         offset="1"
         stop-color="#a51d2d"
         id="stop6" /></radialGradient></defs><path
     class="st1"
     d="M47.5,64.1H13.8c-7.6,0-13.8-6.3-13.8-13.8V13.7C0,6.2,6.2,0,13.7,0h36.6c7.5,0,13.7,6.2,13.7,13.7v36.6c0,7.5-6.2,13.7-13.7,13.7h-2.9.1Z"
     id="path6"
     style="fill:#f9f9f9;fill-opacity:1" /><g
     id="g26"
     transform="matrix(0.87802842,0,0,0.88471168,3.5756003,3.1336906)"><path
       style="fill:#d79f87"
       d="M 40,16.678572 C 44.870083,12.460978 51.662135,9.2252332 59.638847,9.0000006 61.152502,18.313528 57.567287,25.790072 55.192316,29"
       id="path1" /><path
       style="fill:#946e5d"
       d="M 43,17.463104 C 47.263659,14.548315 51.451165,12.473112 57,12 56.664951,21.578844 54.704318,22.828164 52.690846,26"
       id="path2" /><path
       style="fill:#d79f87"
       d="M 7,36.790442 C 7.712545,32.488146 6.930653,16.899439 32.382653,15.200028 49.612608,17.730105 55.696383,24.427539 57,36.790442 56.639766,43.39605 39.380116,60.583101 32.2551,59.984717 24.560837,60.424466 7.11594,42.828113 7,36.790442 Z"
       id="path3" /><path
       style="fill:#d79f87"
       d="M 24,16.678572 C 19.129917,12.460978 12.337865,9.2252332 4.3611525,9.0000006 2.8474975,18.313528 6.4327132,25.790072 8.807684,29"
       id="path4" /><path
       style="fill:#946e5d"
       d="M 21,17.463104 C 16.736341,14.548315 12.548835,12.473112 7,12 c 0.3350491,9.578844 2.2956817,10.828164 4.309154,14"
       id="path5" /><path
       style="opacity:0.2;fill:#ffffff"
       d="M 4.3613281,9 C 4.0717605,10.781711 3.9726788,12.491104 4.0117188,14.119141 4.0278834,12.793193 4.130275,11.421672 4.3613281,10 c 7.8630569,0.222023 14.5653879,3.374393 19.4199219,7.503906 2.471884,-0.628685 5.314103,-1.085186 8.601562,-1.304687 2.945144,0.43247 5.541581,0.998168 7.867188,1.68164 L 40,17.677734 C 44.870083,13.46014 51.66196,10.225233 59.638672,10 c 0.234066,1.440213 0.334143,2.830453 0.347656,4.173828 C 60.029148,12.52881 59.93117,10.799741 59.638672,9 51.66196,9.2252326 44.870083,12.46014 40,16.677734 l 0.25,0.203125 c -2.325607,-0.683472 -4.922044,-1.24917 -7.867188,-1.68164 -3.28746,0.219501 -6.129678,0.676002 -8.601562,1.304687 C 18.926716,12.374393 12.224385,9.2220234 4.3613281,9 Z M 8.3652344,29.322266 C 7.331946,32.46474 7.2461441,35.304814 7,36.791016 7.00333,36.96436 7.025383,37.150098 7.056641,37.341797 7.2837262,35.67114 7.4127653,32.840159 8.5839848,29.664062 8.5136948,29.564352 8.4370542,29.428803 8.3652344,29.322266 Z m 47.0566406,0.332031 c -0.07543,0.107142 -0.157159,0.24662 -0.230469,0.345703 0.865407,2.168231 1.424986,4.59903 1.744141,7.304688 C 56.96476,37.12865 56.991083,36.954518 57,36.791016 56.721616,34.15095 56.200203,31.790639 55.421875,29.654297 Z"
       id="path6-0" /><path
       style="fill:#946e5d"
       d="m 37.5,47.499966 a 5.5,5.5 0 1 1 -11,0 5.5,5.5 0 1 1 11,0 z"
       id="path7" /><path
       style="opacity:0.1"
       d="m 30.6,39.177038 c 0,0 -13.796017,-1.758651 -16.101447,5.809803 -1.546587,5.077273 1.98603,5.206374 2.532369,8.639378 C 17.577258,57.05923 13.6,56.187353 13.6,56.187353 l 0.380064,0.762891 c 0,0 3.882243,0.681154 4.001014,-2.997069 0.118773,-3.678222 -3.593487,-5.342601 -1.313114,-8.966334 2.280372,-3.623729 10.765916,-1.499322 10.765916,-1.499322 z"
       id="path8" /><path
       style="fill:#4a3025"
       d="m 30.6,38.177038 c 0,0 -13.796017,-1.758651 -16.101447,5.809803 -1.546587,5.077273 1.98603,5.206374 2.532369,8.639378 C 17.577258,56.05923 13.6,55.187353 13.6,55.187353 l 0.380064,0.762891 c 0,0 3.882243,0.681154 4.001014,-2.997069 0.118773,-3.678222 -3.593487,-5.342601 -1.313114,-8.966334 2.280372,-3.623729 10.765916,-1.499322 10.765916,-1.499322 z"
       id="path9" /><path
       style="opacity:0.1"
       d="M 20.5,19 C 14.70372,19 9.9992456,23.705407 10,29.5 9.99866,35.295096 14.703349,40 20.5,40 26.296282,40 31.000755,35.294588 31,29.5 31.0013,23.704904 26.296653,19 20.5,19 Z m 0,3 c 4.140474,0 7.500958,3.36064 7.5,7.5 5.39e-4,4.138998 -3.359792,7.5 -7.5,7.5 -4.140472,0 -7.500958,-3.36064 -7.5,-7.5 -5.39e-4,-4.139002 3.359793,-7.5 7.5,-7.5 z"
       id="path10" /><path
       style="fill:#1b65cf"
       d="M 20.5,18 C 14.70372,18 9.9992456,22.705407 10,28.5 9.99866,34.295096 14.703349,39 20.5,39 26.296282,39 31.000755,34.294588 31,28.5 31.0013,22.704904 26.296653,18 20.5,18 Z m 0,3 c 4.140474,0 7.500958,3.36064 7.5,7.5 5.39e-4,4.138998 -3.359792,7.5 -7.5,7.5 -4.140472,0 -7.500958,-3.36064 -7.5,-7.5 -5.39e-4,-4.139002 3.359793,-7.5 7.5,-7.5 z"
       id="path11" /><path
       style="opacity:0.1"
       d="m 33.4,39.177038 c 0,0 13.796017,-1.758651 16.101447,5.809803 1.546587,5.077273 -1.98603,5.206374 -2.532369,8.639378 C 46.422742,57.05923 50.4,56.187353 50.4,56.187353 l -0.380064,0.762891 c 0,0 -3.882243,0.681154 -4.001014,-2.997069 -0.118773,-3.678222 3.593487,-5.342601 1.313114,-8.966334 C 45.051664,41.363112 36.56612,43.487519 36.56612,43.487519 Z"
       id="path12" /><path
       style="fill:#4a3025"
       d="m 33.4,38.177038 c 0,0 13.796017,-1.758651 16.101447,5.809803 1.546587,5.077273 -1.98603,5.206374 -2.532369,8.639378 C 46.422742,56.05923 50.4,55.187353 50.4,55.187353 l -0.380064,0.762891 c 0,0 -3.882243,0.681154 -4.001014,-2.997069 -0.118773,-3.678222 3.593487,-5.342601 1.313114,-8.966334 C 45.051664,40.363112 36.56612,42.487519 36.56612,42.487519 Z"
       id="path13" /><path
       style="fill:#383838"
       d="m 37.5,41.5 a 5.5,5.4999999 0 1 1 -11,0 5.5,5.4999999 0 1 1 11,0 z"
       id="path14" /><path
       style="opacity:0.2"
       d="m 43.48369,28.001346 c -2.066756,0.01897 -3.565739,0.238163 -4.768792,0.805074 -1.604073,0.755878 -2.621083,2.122221 -3.689702,4.321175 a 0.26088317,0.25415387 0 0 0 0.07439,0.308725 c 1.233448,0.94425 2.386202,1.435236 3.466547,1.541644 1.080344,0.106414 2.078231,-0.17787 2.974382,-0.738558 1.792295,-1.121367 3.212654,-3.317412 4.43457,-5.833041 a 0.26088317,0.25415387 0 0 0 -0.225194,-0.362331 c -0.825104,-0.03259 -1.577275,-0.049 -2.266197,-0.04269 z"
       id="path15" /><path
       style="fill:#aef766"
       d="m 43.48369,27.001346 c -2.066756,0.01897 -3.565739,0.238163 -4.768792,0.805074 -1.604073,0.755878 -2.621083,2.122221 -3.689702,4.321175 a 0.26088317,0.25415387 0 0 0 0.07439,0.308725 c 1.233448,0.94425 2.386202,1.435236 3.466547,1.541644 1.080344,0.106414 2.078231,-0.17787 2.974382,-0.738558 1.792295,-1.121367 3.212654,-3.317412 4.43457,-5.833041 a 0.26088317,0.25415387 0 0 0 -0.225194,-0.362331 c -0.825104,-0.03259 -1.577275,-0.049 -2.266197,-0.04269 z"
       id="path16" /><path
       style="fill:#263742"
       d="m 39.073513,28.600002 c -0.185972,1.9923 -0.1078,2.86901 1.301486,4 -0.09795,-1.839009 -0.148526,-2.730617 -1.301486,-4 z"
       id="path17" /><path
       style="opacity:0.1"
       d="M 59.946002,27.364979 A 23.623847,5.3957636 18.246416 1 1 15.054008,12.634981 23.623847,5.3957636 18.246416 1 1 59.946002,27.364979 Z"
       id="path18" /><path
       style="fill:#3f3f3f"
       d="M 59.946002,26.364979 A 23.623847,5.3957636 18.246416 1 1 15.054008,11.634981 23.623847,5.3957636 18.246416 1 1 59.946002,26.364979 Z"
       id="path19" /><path
       style="opacity:0.1"
       d="M 32.308591,5.0000006 C 37.345616,5.1676382 45.931673,6.6249283 53,11.089278 L 49.379932,21.914362 C 41.91488,22.554715 33.304788,19.459418 29,15.666638 Z"
       id="path20" /><path
       style="fill:#484848"
       d="M 32.308591,4.0000004 C 37.345616,4.167638 45.931673,5.6249281 53,10.089278 L 49.379932,20.914362 C 41.91488,21.554715 33.304788,18.459418 29,14.666638 Z"
       id="path21" /><path
       style="opacity:0.2"
       d="m 32.470145,4.0079104 c 6.283605,4.927046 16.325147,6.9226306 20.440894,6.3461886 l 0.08874,-0.26511 C 46.00399,5.6704527 37.527044,4.2002039 32.470145,4.0079104 Z"
       id="path22" /><path
       style="fill:#1b65cf"
       d="m 10.060098,27.239461 c -1.317447,0.418085 -2.143546,0.813033 -2.6195266,1.255077 -0.2379904,0.221021 -0.3944239,0.467366 -0.4320306,0.735544 -0.037607,0.26818 0.052092,0.529972 0.2078121,0.751953 0.3114385,0.44396 0.8750154,0.79778 1.5941381,1.153903 0.7191227,0.356125 1.597754,0.700209 2.532027,1.041796 l 0.196875,-0.533202 C 10.613108,31.305866 9.7492169,30.966288 9.0647874,30.627346 8.3803581,30.288404 7.8777085,29.936776 7.681196,29.656645 7.58294,29.516579 7.5572668,29.410434 7.5718212,29.306645 7.5863756,29.20285 7.6509855,29.072807 7.8261176,28.910162 8.1763813,28.584871 8.9507769,28.187571 10.232364,27.780866 Z"
       id="path23" /><path
       style="opacity:0.1"
       d="m 32,44.5 a 5.5,5.5 0 1 1 -11,0 5.5,5.5 0 1 1 11,0 z"
       id="path24" /><path
       style="fill:#79503c"
       d="m 32,43.5 a 5.5,5.5 0 1 1 -11,0 5.5,5.5 0 1 1 11,0 z"
       id="path25" /><path
       style="opacity:0.1"
       d="m 42.999954,44.499455 a 5.5,5.4982003 0 1 1 -10.999999,0 5.5,5.4982003 0 1 1 10.999999,0 z"
       id="path26" /><path
       style="fill:#79503c"
       d="m 42.999954,43.499455 a 5.5,5.4982003 0 1 1 -10.999999,0 5.5,5.4982003 0 1 1 10.999999,0 z"
       id="path27" /><path
       style="opacity:0.2;fill:#ffffff"
       d="M 29.777574,12.159048 29,14.665694 c 4.304788,3.79278 12.914544,6.890366 20.379596,6.250011 l 0.73897,-2.213372 c -2.181007,0.177365 -7.533296,-0.514858 -10.95772,-1.47466 -3.678325,-1.030963 -7.684373,-3.216478 -9.383272,-5.068625 z"
       id="path28" /><path
       style="opacity:0.3;fill:#1b65cf"
       d="m 20.5,21 c 4.140473,0 7.500959,3.36064 7.5,7.5 5.39e-4,4.138997 -3.359793,7.499999 -7.5,7.499999 -4.140471,0 -7.500957,-3.360639 -7.499999,-7.499999 C 12.999462,24.360998 16.359794,21 20.5,21 Z"
       id="path29" /><path
       style="opacity:0.2"
       d="m 17.516311,28.001346 c 2.066756,0.01897 3.565739,0.238163 4.768792,0.805074 1.604073,0.755878 2.621083,2.122221 3.689702,4.321175 a 0.26088317,0.25415387 0 0 1 -0.07439,0.308725 c -1.233448,0.94425 -2.386202,1.435236 -3.466547,1.541644 -1.080344,0.106414 -2.078231,-0.17787 -2.974382,-0.738558 -1.792295,-1.121367 -3.212654,-3.317412 -4.43457,-5.833041 a 0.26088317,0.25415387 0 0 1 0.225194,-0.362331 c 0.825104,-0.03259 1.577275,-0.049 2.266197,-0.04269 z"
       id="path30" /><path
       style="fill:#aef766"
       d="m 17.516311,27.001346 c 2.066756,0.01897 3.565739,0.238163 4.768792,0.805074 1.604073,0.755878 2.621083,2.122221 3.689702,4.321175 a 0.26088317,0.25415387 0 0 1 -0.07439,0.308725 c -1.233448,0.94425 -2.386202,1.435236 -3.466547,1.541644 -1.080344,0.106414 -2.078231,-0.17787 -2.974382,-0.738558 -1.792295,-1.121367 -3.212654,-3.317412 -4.43457,-5.833041 a 0.26088317,0.25415387 0 0 1 0.225194,-0.362331 c 0.825104,-0.03259 1.577275,-0.049 2.266197,-0.04269 z"
       id="path31" /><path
       style="fill:#263742"
       d="m 21.926488,28.600002 c 0.185972,1.9923 0.1078,2.86901 -1.301486,4 0.09795,-1.839009 0.148526,-2.730617 1.301486,-4 z"
       id="path32" /></g></svg>
